X:21069 
T:GREEN BANNER (hornpipe), The 
B:DMI.0872
Z:Nordberg/Black
R:hornpipe
N:Dotted rhythm removed
%Q:1/4=150
M:C|
L:1/8
K:G
FE|DGBG dGBG|efge dBAB|GFGA BABG|ABAF GFEF|
DGBG dGBG|efge dBAB|GBdg ecAF|G2G2G2:|
ef|gbeg dgBe|dBge dBAB|GBdB edcB|AGAB A2DC|
B,DGB d2cB|ABcd e2ge|dBGB AGFA|G2G2G2:|

%%%

